X: 292
T: 8. Les Tableaus
T: les Tableaux
B: Robert Landrin "Potpourri fran\,cois des contre-danse ancienne tel quil se danse chez la Reine ..." 1760 p.29 #2 dance 9 #8
S: http://memory.loc.gov/cgi-bin/query/D?musdibib:2:./temp/~ammem_EbRS:
Z: 2014 John Chambers <jc:trillian.mit.edu>
M: 6/8
L: 1/8
K: G
% - - - - - - - - - - - - - - - - - - - - - - - - -
!segno!G B2d |\
G3 A3 | D2G !+!F2G | A2B cdc | !+!B2G B2d |\
G3 A3 | D2G !+!F2G | ABc !+!BAF | HG2 |]
"2F"B B2B |\
E3 F3 | ^D2B B2B | BAG !+!F2E | E2A A2A |\
D3 E3 | ^C2A A2A | AGF !+!E2D | D2 !segno!y|]
% - - - - - - - - - - - - - - - - - - - - - - - - -

%%sep 1 1 500
%%sep 1 1 500
